icons/fill-ele-communication-message-s-comment-chat-dot-square.svg

<svg xmlns="http://www.w3.org/2000/svg" width="32px" height="32px" viewBox="0 0 32 32" version="1.1">
    <title>fill-ele-communication-message-s-comment-chat-dot-square</title>
    <g id="fill-ele-communication-message-s-comment-chat-dot-square" stroke-width="1" fill-rule="evenodd">
        <path d="M28,4 C28.5522847,4 29,4.44771525 29,5 L29,23 C29,23.5522847 28.5522847,24 28,24 L17,24 L10,29 L10,24 L4,24 C3.44771525,24 3,23.5522847 3,23 L3,5 C3,4.44771525 3.44771525,4 4,4 L28,4 Z M16,12.5 C15.1715729,12.5 14.5,13.1715729 14.5,14 C14.5,14.8284271 15.1715729,15.5 16,15.5 C16.8284271,15.5 17.5,14.8284271 17.5,14 C17.5,13.1715729 16.8284271,12.5 16,12.5 Z M9,12.5 C8.17157288,12.5 7.5,13.1715729 7.5,14 C7.5,14.8284271 8.17157288,15.5 9,15.5 C9.82842712,15.5 10.5,14.8284271 10.5,14 C10.5,13.1715729 9.82842712,12.5 9,12.5 Z M23,12.5 C22.1715729,12.5 21.5,13.1715729 21.5,14 C21.5,14.8284271 22.1715729,15.5 23,15.5 C23.8284271,15.5 24.5,14.8284271 24.5,14 C24.5,13.1715729 23.8284271,12.5 23,12.5 Z" id="&#24418;&#29366;" />
    </g>
</svg>

<svg xmlns="http://www.w3.org/2000/svg" viewBox="0 0 32 32"><path fill="currentColor" d="M28 4a1 1 0 0 1 1 1v18a1 1 0 0 1-1 1H17l-7 5v-5H4a1 1 0 0 1-1-1V5a1 1 0 0 1 1-1zm-12 8.5a1.5 1.5 0 1 0 0 3 1.5 1.5 0 0 0 0-3m-7 0a1.5 1.5 0 1 0 0 3 1.5 1.5 0 0 0 0-3m14 0a1.5 1.5 0 1 0 0 3 1.5 1.5 0 0 0 0-3"/></svg>
